X: 1502
T: the Rambling Sailor   #2
T: an loingseoir siu.tarras.
R: reel
O: Cronin
B: O'Neill's 1850 "Music of Ireland" 1502
Z: transcribed by John B. Walsh, walsh@math.ubc.ca 8/23/96
M: C|
L: 1/8
K: D
(Ac) |\
dB ((3BBB) (cB)cA | dcdA FDFA | (3ddd (Bd) cBAF | AGFD EFAc || dcBd cBcA | dcdA GFEF | (3DDD (FE) DFAF |
GABc dcBc |: d2{c}de fefg | a2ab agfe |1 dcde fegf | efed cABc :|2 dB (3BBB (cB)cA | dAFD GABc |]
|: defe dcdA | BdAF [1 GABc | (3ddd (fe) defg | agab agfe :|[2 GFEF | (3DDD (FE) DFAF | GABc d2 |]
